X:1
T:Podgorica, 87.87 D
T:Henry Lake Gilmour (1836-1920)
T:Podgorica, 87.87 D
T:Public Domain
C:Henry Lake Gilmour (1836-1920)
Z:Public Domain
%%score 1 2
L:1/8
M:4/4
K:D
V:1 treble 
V:2 bass 
V:1
 [FA]>[EG] | [DF]3 [DF] [FA]2 [DF]2 | [DF] [CE]4 z [CE]>[DF] | [EG]3 [CE] D2 [CE]2 | %4
 [DF]6 [FA]>[EG] | [DF]3 [DF] [FA]2 [DF]2 | [DF] [CE]4 z [EA]>[EA] | [E^G]2 [EA]2 [EB]3 [Dc] | %8
 [CA]6 [EA]>[EA] | [Gc]3 [Gc] [GB]2 [Gc]2 | [Fd] [FA]4 z [FA]>[FA] | [GB]2 [FA]2 [DF]2 [DG]2 | %12
 [CE]6 D>[DE] | [DF]3 [DF] [DG]2 [GB]2 | [FA] [Fd]4- [Fd]3 | [FA]3 [GB] [FA]2 [DF]2 | %16
 [CE]3 [A,D] [A,D]4 |] %17
V:2
 [D,A,]>[D,A,] | [D,A,]3 [D,A,] [D,D]2 [D,A,]2 | [A,,A,] [A,,A,]4 z [A,,A,]>[A,,A,] | %3
 [A,,A,]3 [A,,G,] [A,,F,]2 [A,,A,]2 | [D,A,]6 [D,A,]>[D,A,] | [D,A,]3 [D,A,] [D,D]2 [D,A,]2 | %6
 [A,,A,] [A,,A,]4 z [A,,C]>[A,,C] | [E,B,]2 [E,C]2 [E,D]3 [E,^G,] | [A,,A,]6 [A,C]>[A,C] | %9
 [A,E]3 [A,E] [A,E]2 A,2 | [D,A,] [D,D]4 z [D,D]>[D,D] | [D,D]2 [D,D]2 [D,A,]2 [G,,B,]2 | %12
 [A,,A,]6 [D,F,]>[D,G,] | [D,A,]3 [=C,A,] [B,,G,]2 [G,,D]2 | [D,D] [D,A,]4- [D,A,]3 | %15
 [D,D]3 [D,D] [D,D]2 [D,A,]2 | [A,,G,]3 [D,F,] [D,F,]4 |] %17

